X:208
T:The Duchess of Hamilton's Rant
C:Ashover Book, c. 1764
M:6/8
L:1/8
S:Colin Hume's website,  colinhume.com  - chords can also be printed below the stave.
Q:3/8=120
N:The manuscript has only two sharps, but since there are no G's in the piece it makes no difference!
K:A
P:A
|: f | "A"ecA "D"def | "A"ecA "E7"d2f | "A"ecA "F#m"ecA | "Bm"BcB "E7"d2f |\
"A"ecA "D"def | "A"ecA "E7"d2f | "D"faf "A"edc | "Bm"BcB "E7"d2 :|
P:B
|:f | "A"ecA "/"acA | "A"ecA "E7"d2f | "A"ecA "F#m"acA | "Bm"BcB "E7"d2f |\
"A"ecA "/"acA | "A"ecA "E7"d2f | "D"faf "A"edc | "Bm"BcB "E7"d2 :|

